X:1
T: The Foula Reel
C:
R:Jig
Q:128
K:G
M:6/8
L:1/16
|:D2|E4G2 G4e2|e2d2B2 B2A2B2|G4B2 A4B2|G4A2 G2E2D2|
E4G2 G4e2|e2d2B2 B2A2B2|G4B2 A4B2|1d6 D4|2d6 D6|
|:e2d2B2 A2B2d2|e2d2B2 B2A2G2|g4B2 A4B2|G4A2 G2E2D2|
e2d2B2 A2B2d2|e2d2B2 B2A2G2|g4B2 A4B2|1d6D6:|2d6 G4||
